public/Icons/favourites.svg

<svg width="24" height="24" viewBox="0 0 24 24" fill="none" xmlns="http://www.w3.org/2000/svg">
<g id="24/ favourites">
<path id="Vector" d="M12 21C11.8736 21.0012 11.7491 20.9689 11.6389 20.9062C11.2407 20.6812 2 15.3656 2 8.62499C2 7.4444 2.36687 6.29374 3.04865 5.336C3.73043 4.37826 4.69256 3.66199 5.79873 3.28866C6.90491 2.91532 8.09907 2.90385 9.21204 3.25586C10.325 3.60787 11.3004 4.30553 12 5.25C12.6996 4.30553 13.675 3.60787 14.788 3.25586C15.9009 2.90385 17.0951 2.91532 18.2013 3.28866C19.3074 3.66199 20.2696 4.37826 20.9513 5.336C21.6331 6.29374 22 7.4444 22 8.62499C22 11.4937 20.3611 14.4375 17.1296 17.3812C15.6623 18.7169 14.0645 19.8979 12.3611 20.9062C12.2509 20.9689 12.1264 21.0012 12 21ZM7.55556 4.5C6.47504 4.5 5.43879 4.93459 4.67475 5.70818C3.91071 6.48177 3.48148 7.53097 3.48148 8.62499C3.48148 13.8 10.3333 18.3468 12 19.3781C13.6667 18.3468 20.5185 13.8 20.5185 8.62499C20.5194 7.67139 20.1939 6.74694 19.5974 6.00894C19.001 5.27093 18.1704 4.76495 17.2471 4.57708C16.3237 4.38921 15.3646 4.53107 14.5328 4.97851C13.7011 5.42595 13.0482 6.15133 12.6852 7.03124C12.6294 7.1688 12.5344 7.28645 12.4124 7.36926C12.2904 7.45206 12.1469 7.49627 12 7.49627C11.8531 7.49627 11.7096 7.45206 11.5876 7.36926C11.4656 7.28645 11.3706 7.1688 11.3148 7.03124C11.0065 6.27962 10.4845 5.63771 9.81521 5.18703C9.14588 4.73634 8.35938 4.49721 7.55556 4.5Z" fill="#202020"/>
</g>
</svg>

<svg width="24" height="24" fill="none" xmlns="http://www.w3.org/2000/svg"><path d="M12 21a.716.716 0 0 1-.361-.094C11.24 20.681 2 15.366 2 8.625c0-1.18.367-2.331 1.049-3.289a5.56 5.56 0 0 1 2.75-2.047 5.49 5.49 0 0 1 3.413-.033A5.557 5.557 0 0 1 12 5.25a5.557 5.557 0 0 1 2.788-1.994 5.49 5.49 0 0 1 3.413.033 5.56 5.56 0 0 1 2.75 2.047A5.673 5.673 0 0 1 22 8.625c0 2.869-1.639 5.813-4.87 8.756a29.116 29.116 0 0 1-4.769 3.525A.716.716 0 0 1 12 21ZM7.556 4.5c-1.081 0-2.117.435-2.881 1.208A4.151 4.151 0 0 0 3.48 8.625c0 5.175 6.852 9.722 8.519 10.753 1.667-1.031 8.518-5.578 8.518-10.753.001-.954-.324-1.878-.92-2.616a4.065 4.065 0 0 0-2.35-1.432 4.03 4.03 0 0 0-2.715.402 4.107 4.107 0 0 0-1.848 2.052.748.748 0 0 1-.685.465.734.734 0 0 1-.685-.465 4.096 4.096 0 0 0-1.5-1.844 4.02 4.02 0 0 0-2.26-.687Z" fill="#202020"/></svg>
